!!!ONB: MCCC : IJH0159_05 : Extracted Monophonic Melody
!!!COM: Haydn, Joseph
!!!OPR: Divertimento in E-flat major
!!!OMV: 5
!!!SCT: Hob.II:6
!!!ODT: 1765///
**kern
*thru
*k[b-e-a-]
*E-:
*clefF
*M2/4
4e-
8r
8b-
=1
16a-
16g
16f
16e-
16d
16e-
16f
16g
=2
4a-
8r
8cc
=3
16b-
16a-
16g
16f
16e-
16d
16e-
16f
=4
4g
8r
8B-
=5
16c
16B-
16A-
16B-
16c
16d
16e-
16f
=6
16g
16a-
16b-
16cc
16dd
16ee-
16dd
16ee-
=7
8A-
8r
8B-
8r
=8
4e-
8r
16bb-
16aa-
=9
16gg
16ee-
16dd
16cc
16b-
16a-
16g
16f
=10
4e-
8r
16bb-
16gg
=11
16ff
16dd
16cc
16b-
16a
16g
16f
16e-
=12
4d
8r
16bb-
16ff
=13
16ee-
16cc
16a
16f
16dd
16b-
16a
16b-
=14
16ee-
16cc
16a
16f
16dd
16b-
16a
16b-
=15
16ee-
16cc
16a
16f
16dd
16b-
16f
16d
=16
8cc
8f
8r
16ff
16bb-
=17
16bb-
16aa
16ccc
16bb-
16ddd
16bb-
16aa
16bb-
=18
4ee-
8dd
16ff
16bb-
=19
16bb-
16aa
16ccc
16bb-
16ddd
16bb-
16aa
16bb-
=20
4ee-
8dd
8ff
=21
16gg
16ee-
16dd
16cc
16ff
16dd
16cc
16b-
=22
16ee-
16dd
16cc
16b-
16a
16g
16f
16e-
=23
16d
16f
16b-
16d
8e-
8f
=24
4B-
4r
=25
8r
8b-
4b-
=26
2dd
=27
4ee-
8r
8B-
=28
2d
=29
4e-
8r
8cc
=30
2aa-
=31
4gg
8r
8ee-
=32
16ddd-
16ccc
16bb-
16aa-
16gg
16ff
16ee-
16dd-
=33
4cc
4r
=34
16e-
16a-
16cc
16ee-
16e-
16a-
16cc
16ee-
=35
16e-
16g
16b-
16ee-
16e-
16g
16b-
16ee-
=36
16a-
16b-
16g
16b-
16f
16b-
16e-
16b-
=37
16d
16b-
16e-
16b-
16f
16b-
16g
16b-
=38
16a-
16b-
16g
16b-
16f
16b-
16e-
16b-
=39
16d
16b-
16e-
16b-
16f
16b-
16g
16b-
=40
16a-
16b-
16g
16b-
16f
16b-
16e-
16b-
=41
4B-
4r
=42
4e-
8r
8b-
=43
16a-
16g
16f
16e-
16d
16e-
16f
16g
=44
4a-
8r
8cc
=45
16b-
16a-
16g
16f
16e-
16d
16e-
16f
=46
4g
8r
8B-
=47
16c
16B-
16A-
16B-
16c
16d
16e-
16f
=48
16g
16a-
16b-
16cc
16dd
16ee-
16dd
16ee-
=49
8a-
8r
8g
8r
=50
4f
8r
16bb-
16aa-
=51
16gg
16ff
16ee
16dd-
16cc
16b-
16a-
16g
=52
4f
8r
16aa-
16gg
=53
16ff
16ee-
16dd
16cc
16b-
16a-
16g
16f
=54
4e-
8r
16bb-
16gg
=55
16aa-
16ff
16dd
16b-
16gg
16bb-
16gg
16bb-
=56
16aa-
16ff
16dd
16b-
16gg
16bb-
16gg
16bb-
=57
16aa-
16ff
16dd
16b-
16ee-
16b-
16g
16e-
=58
8f
8B-
8r
16b-
16ee-
=59
16ee-
16dd
16ff
16ee-
16gg
16ee-
16dd
16ee-
=60
4a-
8g
16b-
16ee-
=61
16ee-
16dd
16ff
16ee-
16gg
16ee-
16dd
16ee-
=62
4a-
8g
8bb-
=63
16ccc
16aa-
16gg
16ff
16bb-
16gg
16ff
16ee-
=64
16aa-
16gg
16ff
16ee-
16dd
16cc
16b-
16a-
=65
16g
16b-
16ee-
16g
8a-
8b-
=66
4e-
8r
8g
=67
8a-
8r
8a-
8r
=68
4g
8r
8g
=69
4f
8r
8d
=70
4e-
4gg
=71
4gg
4gg
=72
4gg
4r
==
*-
